gama.ui.shared/icons_svg/dark/gaml/_display.svg

<svg height="18" viewBox="-634 -3239.414 24 18" width="24" xmlns="http://www.w3.org/2000/svg"><g fill="none"><g fill="#999"><path d="m-618.8973-3227.4872v-8.7063c0-.7375-.5952-1.3325-1.3326-1.3325h-11.5491c-.7374 0-1.3326.595-1.3326 1.3325v6.0322l2.79844-2.7984c.17766-.1777.45306-.1777.63076 0l5.0194 5.0194 2.3543-2.3543c.17766-.1776.4531-.1776.63074 0l2.79846 2.7986zm0 1.2526-3.1094-3.1094-2.3542 2.3543c-.1777.1777-.4531.1777-.6308 0l-5.0194-5.0193-3.1094 3.1092v4.2554c0 .7374.5952 1.3326 1.3326 1.3326h11.54914c.73736 0 1.33256-.5952 1.33256-1.3326v-1.5902zm-15.1027-9.9589c0-1.226.995-2.221 2.221-2.221h11.5491c1.226 0 2.221.995 2.221 2.221v11.5491c0 1.226-.995 2.221-2.221 2.221h-11.5491c-1.226 0-2.221-.995-2.221-2.221z"/><path d="m-618-3224.6355c0 1.226-.995 2.221-2.221 2.221h-11.558c-1.226 0-2.221-.995-2.221-2.221v-11.558c0-1.226.995-2.221 2.221-2.221h11.558c1.226 0 2.221.995 2.221 2.221zm-.8884-10.2255v-1.3325c0-.7375-.5952-1.3325-1.3326-1.3325h-11.558c-.7374 0-1.3326.595-1.3326 1.3325v1.3325zm0 .8885h-14.2232v9.337c0 .7375.5952 1.3325 1.3326 1.3325h11.558c.7374 0 1.3326-.595 1.3326-1.3325zm-13.3348-2.6652h.8884v.8884h-.8884zm1.7768 0h.8884v.8884h-.8884zm1.7768 0h.8884v.8884h-.8884z"/><path d="m-625.49306-3233.2796h1.55356c.5523 0 1 .4476 1 1v1.5536c0 .5523-.4477 1-1 1h-1.55356c-.55228 0-1-.4477-1-1v-1.5536c0-.5524.44772-1 1-1z"/></g><path d="m-625.6047-3232.391h1.776791v1.776791h-1.776791z" fill="#fff"/></g></svg>

<?xml version="1.0" encoding="UTF-8" standalone="no"?>
<!DOCTYPE svg PUBLIC "-//W3C//DTD SVG 1.1//EN" "http://www.w3.org/Graphics/SVG/1.1/DTD/svg11.dtd">
<svg xmlns:dc="http://purl.org/dc/elements/1.1/" xmlns:xl="http://www.w3.org/1999/xlink" version="1.1" xmlns="http://www.w3.org/2000/svg" viewBox="-634 -3239.4145 24 18" width="24" height="18">
  <defs/>
  <g id="SOURCES" stroke-dasharray="none" stroke="none" stroke-opacity="1" fill="none" fill-opacity="1">
    <title>SOURCES</title>
    <g id="SOURCES_Calque_2">
      <title>Calque 2</title>
      <g id="Group_10262">
        <g id="Graphic_10260">
          <path d="M -618.8973 -3227.4872 L -618.8973 -3236.1935 C -618.8973 -3236.931 -619.4925 -3237.526 -620.2299 -3237.526 L -631.779 -3237.526 C -632.5164 -3237.526 -633.1116 -3236.931 -633.1116 -3236.1935 L -633.1116 -3230.1613 L -630.31316 -3232.9597 C -630.1355 -3233.1374 -629.8601 -3233.1374 -629.6824 -3232.9597 L -624.663 -3227.9403 L -622.3087 -3230.2946 C -622.13104 -3230.4722 -621.8556 -3230.4722 -621.67796 -3230.2946 L -618.8795 -3227.496 Z M -618.8973 -3226.2346 L -622.0067 -3229.344 L -624.3609 -3226.9897 C -624.5386 -3226.812 -624.814 -3226.812 -624.9917 -3226.9897 L -630.0111 -3232.009 L -633.1205 -3228.8998 L -633.1205 -3224.6444 C -633.1205 -3223.907 -632.5253 -3223.3118 -631.7879 -3223.3118 L -620.23876 -3223.3118 C -619.5014 -3223.3118 -618.9062 -3223.907 -618.9062 -3224.6444 L -618.9062 -3226.2346 Z M -634 -3236.1935 C -634 -3237.4195 -633.005 -3238.4145 -631.779 -3238.4145 L -620.2299 -3238.4145 C -619.0039 -3238.4145 -618.0089 -3237.4195 -618.0089 -3236.1935 L -618.0089 -3224.6444 C -618.0089 -3223.4184 -619.0039 -3222.4234 -620.2299 -3222.4234 L -631.779 -3222.4234 C -633.005 -3222.4234 -634 -3223.4184 -634 -3224.6444 Z" fill="#999"/>
        </g>
        <g id="Graphic_10258">
          <path d="M -618 -3224.6355 C -618 -3223.4095 -618.995 -3222.4145 -620.221 -3222.4145 L -631.779 -3222.4145 C -633.005 -3222.4145 -634 -3223.4095 -634 -3224.6355 L -634 -3236.1935 C -634 -3237.4195 -633.005 -3238.4145 -631.779 -3238.4145 L -620.221 -3238.4145 C -618.995 -3238.4145 -618 -3237.4195 -618 -3236.1935 L -618 -3224.6355 Z M -618.8884 -3234.861 L -618.8884 -3236.1935 C -618.8884 -3236.931 -619.4836 -3237.526 -620.221 -3237.526 L -631.779 -3237.526 C -632.5164 -3237.526 -633.1116 -3236.931 -633.1116 -3236.1935 L -633.1116 -3234.861 Z M -618.8884 -3233.9725 L -633.1116 -3233.9725 L -633.1116 -3224.6355 C -633.1116 -3223.898 -632.5164 -3223.303 -631.779 -3223.303 L -620.221 -3223.303 C -619.4836 -3223.303 -618.8884 -3223.898 -618.8884 -3224.6355 Z M -632.2232 -3236.6377 L -631.3348 -3236.6377 L -631.3348 -3235.7493 L -632.2232 -3235.7493 Z M -630.4464 -3236.6377 L -629.558 -3236.6377 L -629.558 -3235.7493 L -630.4464 -3235.7493 Z M -628.6696 -3236.6377 L -627.7812 -3236.6377 L -627.7812 -3235.7493 L -628.6696 -3235.7493 Z" fill="#999"/>
        </g>
        <g id="Graphic_10256">
          <path d="M -625.49306 -3233.2796 L -623.9395 -3233.2796 C -623.3872 -3233.2796 -622.9395 -3232.832 -622.9395 -3232.2796 L -622.9395 -3230.726 C -622.9395 -3230.1737 -623.3872 -3229.726 -623.9395 -3229.726 L -625.49306 -3229.726 C -626.04534 -3229.726 -626.49306 -3230.1737 -626.49306 -3230.726 L -626.49306 -3232.2796 C -626.49306 -3232.832 -626.04534 -3233.2796 -625.49306 -3233.2796 Z" fill="#999"/>
        </g>
        <g id="Graphic_10255">
          <rect x="-625.6047" y="-3232.391" width="1.7767907" height="1.7767907" fill="white"/>
        </g>
      </g>
      <g id="Graphic_10263"/>
    </g>
  </g>
</svg>
